X:1
T:Title
%%score 1 ( 2 3 )
L:1/8
Q:1/4=100
M:4/4
K:Db
V:1 treble nm="Strings 1, Soprano"
V:2 bass nm="Strings 1, Bass"
V:3 bass 
V:1
 z4 z2 D2 | [DF]4 [EG]2 [DF]2 | [CE]4 [DF]2 [EG]2 | [DF]4 [FA]2 [Ad]2 | [Gd]6 [Gd]2 | %5
 [Fd]4 [FA]2 [GB]2 | [FA]4 [DF]2 [DA]2 | [CG]4 [DF]2 D2 | [CE]6 D2 | [DF]4 [EG]2 [DF]2 | %10
 [CE]4 [DF]2 [EG]2 | [DF]4 [FA]2 [Ad]2 | [Gd]6 [Gd]2 | [Fd]4 [FA]2 [GB]2 | %14
 [FA]4 [Fd]2[Q:1/4=100] D2[Q:1/4=12] | [DF]4 [EG]2 [CE]2 | D6 [DF]2 | [FA]4 [GB][FA] [EG]2 | %18
 [DF]6 D2 | [DF]4 [EG][DF] [CE]2 | D6 [FA]2 | [Fd]2 [Ac]2 [GB]2 [Bd]2 | [Ac]2 [GB]2 [FA]2 D2 | %23
 [DF]4 [EG]2 [CE]2 | D6 z2 |] %25
V:2
 z4 z2 [D,F,]2 | [D,A,]4 [C,A,]2 [D,A,]2 | [A,,A,]4 [A,,A,]2 [A,,A,]2 | [D,A,]4 [D,D]2 [F,D]2 | %4
w: 1.~My~|heav en ly~|Fa ther~ is~|car ing~ for~|
 [G,B,]6 [G,B,]2 | [D,A,]4 [D,D]2 [D,D]2 | [D,D]4 [D,A,]2 [F,A,]2 | [E,A,]4 [D,A,]2 [B,,=G,]2 | %8
w: me,~ My~|bark~ He~ is~|guid ing~ o'er~|life's~ rag ing~|
 [A,,A,]6 [D,F,]2 | [D,A,]4 [C,A,]2 [D,A,]2 | [A,,A,]4 [A,,A,]2 [A,,A,]2 | [D,A,]4 [D,D]2 [F,D]2 | %12
w: sea;~ Though~|storms~ o ver|shad ow,~ and~|bil lows~ are~|
 [G,B,]6 [G,B,]2 | [D,A,]4 [D,D]2 [D,D]2 | D2 A,2 [B,,B,]2 [=A,,=G,]2 | %15
w: wild,~ They~|can not~ o'er|whelm~ * me,~ for~|
 [A,,A,]4 [A,,A,]2 [A,,G,]2 | [D,F,]6 z2 | z4 z2 [A,,A,]2 | [D,A,]2 [F,A,]2 A,2 z2 | %19
w: I~ am~ His~|child.~|||
 z4 z2 [A,,A,]2 | [D,F,]2 [E,G,]2 [F,A,]2 [D,D]2 | [D,A,]2 [F,D]2 [G,D]2 [G,D]2 | %22
w: |||
 [D,D]2 [D,D]2 [D,D]2 [B,,=G,]2 | [A,,A,]4 [A,,A,]2 [A,,G,]2 | [D,F,]6 z2 |] %25
w: |||
V:3
 x8 | x8 | x8 | x8 | x8 | x8 | x8 | x8 | x8 | x8 | x8 | x8 | x8 | x8 | D,4 z4 | x8 | x8 | x8 | x8 | %19
 x8 | x8 | x8 | x8 | x8 | x8 |] %25

